symbols/web/video_camera_front/materialsymbolsoutlined/video_camera_front_wght600gradN25_24px.svg

<svg xmlns="http://www.w3.org/2000/svg" height="24" width="24"><path d="M4.325 20.25q-1.05 0-1.787-.738-.738-.737-.738-1.787V6.275q0-1.05.738-1.788.737-.737 1.787-.737H15.8q1.05 0 1.787.737.738.738.738 1.788v4.35L22.2 6.75v10.5l-3.875-3.875v4.35q0 1.05-.738 1.787-.737.738-1.787.738Zm0-2.525H15.8V6.275H4.325v11.45Zm1.65-1.625h8.2v-.625q0-1.45-1.462-1.95-1.463-.5-2.638-.5-1.175 0-2.637.5-1.463.5-1.463 1.95Zm4.1-4.15q.85 0 1.45-.6t.6-1.45q0-.825-.6-1.413-.6-.587-1.45-.587t-1.45.587q-.6.588-.6 1.413 0 .85.6 1.45t1.45.6Zm-5.75 5.775V6.275v11.45Z"/></svg>

<svg xmlns="http://www.w3.org/2000/svg" height="24" width="24"><path d="M4.325 20.25Q3.275 20.25 2.538 19.512Q1.8 18.775 1.8 17.725V6.275Q1.8 5.225 2.538 4.487Q3.275 3.75 4.325 3.75H15.8Q16.85 3.75 17.587 4.487Q18.325 5.225 18.325 6.275V10.625L22.2 6.75V17.25L18.325 13.375V17.725Q18.325 18.775 17.587 19.512Q16.85 20.25 15.8 20.25ZM4.325 17.725H15.8Q15.8 17.725 15.8 17.725Q15.8 17.725 15.8 17.725V6.275Q15.8 6.275 15.8 6.275Q15.8 6.275 15.8 6.275H4.325Q4.325 6.275 4.325 6.275Q4.325 6.275 4.325 6.275V17.725Q4.325 17.725 4.325 17.725Q4.325 17.725 4.325 17.725ZM5.975 16.1H14.175V15.475Q14.175 14.025 12.713 13.525Q11.25 13.025 10.075 13.025Q8.9 13.025 7.438 13.525Q5.975 14.025 5.975 15.475ZM10.075 11.95Q10.925 11.95 11.525 11.35Q12.125 10.75 12.125 9.9Q12.125 9.075 11.525 8.487Q10.925 7.9 10.075 7.9Q9.225 7.9 8.625 8.487Q8.025 9.075 8.025 9.9Q8.025 10.75 8.625 11.35Q9.225 11.95 10.075 11.95ZM4.325 17.725Q4.325 17.725 4.325 17.725Q4.325 17.725 4.325 17.725V6.275Q4.325 6.275 4.325 6.275Q4.325 6.275 4.325 6.275Q4.325 6.275 4.325 6.275Q4.325 6.275 4.325 6.275V17.725Q4.325 17.725 4.325 17.725Q4.325 17.725 4.325 17.725Z"/></svg>
